!!!!SEGMENT: pl-wnifc--6634-n--007_caderski-piotr--7-karol-mazur.krn
!!!cenid: 18xx:4003
!!!COM: Caderski, Piotr
!!!COM-rismID: pe50046922
!!!CDT: >1800-1894
!!!CNT:
!!!OTL: 7. Karól Mazur
!!!PDT:
!!!AGN:
!!!SMS-siglum: PL-Wnifc
!!!SMS-shelfmark: 6634/n
!!!SMS-shelfwork: 007 W
!!!SMS-variant:
!!!SMS-altvar:
!!!NIFC-rismSourceID: 1001148593
!!!NIFC-rismChildID: 1001148603
!!!NIFC-islandoraID: nifc:212915
!!!URL-pdf-islandora: https://repozytorium.nifc.pl/islandora/object/nifc%3A212915/datastream/PDF/view
!!!URL-scan: https://polish.musicsources.pl/pl/lokalizacje/galeria/druki-muzyczne/16872 @EN{Scan on Polish Music Sources Website} @PL{Skany w portalu Dziedzictwo Muzyki Polskiej w otwartym dostępie}
!!!ONB-nifc: UWAGA: str. 12
!!!AIN: 1 violn
!!!key: D
**kern	**fing	**dynam
*I"Violon.	*	*
*I'vl	*	*
*ICstr	*	*
*Ivioln	*	*
*clefG2	*	*
*k[f#c#]	*	*
*D:	*	*
*M3/8	*	*
=1	=1	=1
8aau\L	.	ff
8aa\	.	.
8aa\J	.	.
=2	=2	=2
(16aa\LL	.	.
16dd\J)	.	.
8gg\J	.	.
8ff#^^\	.	.
=3	=3	=3
8bb\L	.	.
8bb\	.	.
8bb\J	.	.
=4	=4	=4
(16bb\LL	.	.
16ff#\J)	.	.
8aa\J	.	.
8gg^^\	.	.
=5	=5	=5
8dd\L	.	.
8dd\	.	.
8ccn\J	.	.
!LO:LB:g=original	!	!
=6	=6	=6
16.b\LL	.	.
32ccn\K	.	.
16.dd\	.	.
32ee\JJk	4	.
8dd\	.	.
=7	=7	=7
8dd\L	.	.
8dd\	.	.
8ccn\J	.	.
=8	=8	=8
16.b\LL	.	.
(32ff#\K	.	.
16aa\	.	.
16gg\JJ	.	.
8dd\)	.	.
=9	=9	=9
8bb\L	.	.
8bb\	.	.
8bb^^\J	.	.
=10	=10	=10
(16bb\LL	.	.
16ff#\J)	.	.
8aa\J	.	.
8gg^^\	.	.
=11	=11	=11
16bb\LL	.	.
16bb\JJ	.	.
8bb\L	.	.
8aa^^\J	.	.
!LO:LB:g=original	!	!
=12	=12	=12
(16gg\LL	.	.
16ff#\)	.	.
(16ee\	.	.
16ff#\)	.	.
(16gg\	.	.
16gg#X\JJ)	.	.
=13	=13	=13
8aa\L	.	.
8aa\	.	.
8gg^^\J	.	.
=14	=14	=14
(16ff#\LL	.	.
16ee\J	.	.
8dd\J)	.	.
(16cc#\LL	.	.
16b\JJ)	.	.
=15	=15	=15
(16a\LL	.	.
16g#X\	.	.
16a\	.	.
16cc#\	.	.
16ee\	.	.
16ff#\JJ)	.	.
=16	=16	=16
8dd\	.	.
!LO:TX:i:b:t=Fine.	!	!
4ddd^\	.	.
!LO:LB:g=original	!	!
=17||	=17||	=17||
*k[f#c#g#]	*	*
(16eu/LL	.	f
16g#/JJ	.	.
8.b\L)	.	.
(16cc#\Jk	.	.
=18	=18	=18
16.a\LL	.	.
32cc#\JJk	.	.
16ee\)	4	.
16r	.	.
8ee^^\	.	.
=19	=19	=19
(16e/LL	.	.
16g#/JJ	.	.
8.b\L)	.	.
(16cc#\Jk	.	.
=20	=20	=20
16.a\LL	.	.
32cc#\JJk	.	.
16ee\)	4	.
16r	.	.
8ee^^\	.	.
=21	=21	=21
(16e/LL	.	.
16g#/JJ	.	.
8.b\L)	.	.
(16cc#\Jk	.	.
=22	=22	=22
16.a\LL	.	.
32cc#\JJk	.	.
16ee\)	4	.
16r	.	.
8aa^^\	.	.
!LO:LB:g=original	!	!
=23	=23	=23
(8.gg#\L	.	.
16ff#M\L	.	.
16ee\	.	.
16dd\JJ)	.	.
=24	=24	=24
(16cc#\LL	.	.
16dd\J	.	.
8ff#\)	.	.
8ee'\J	.	.
=25	=25	=25
(8.ee\L	.	p
16dd\L	.	.
16ccn\	.	.
16b\JJ)	.	.
=26	=26	=26
(16.a/LL	.	.
32b/JK	.	.
8ccnM</	.	.
8e/J)	.	.
=27	=27	=27
16a/LL	.	.
16b/JJ	.	.
!LO:TUP:a:problem:klamra łukowa	!	!
24ccn\LL	.	.
24dd\	.	.
24cc\JJ	.	.
(16b/LL	.	.
16g#X/JJ	.	.
!LO:LB:g=original	!	!
=28	=28	=28
16.a/LL	.	.
32b/JJk	.	.
8ccn/L)	.	.
8e/J	.	.
=29	=29	=29
(8.ee\L	4	.
16dd\L	.	.
16b\	.	.
16g#\JJ)	.	.
=30	=30	=30
(16.a\LL	.	.
32cc#X\JJk	.	.
8ee\)	4	.
!LO:N:vis=4	!	!
8aa^^\	.	.
=31	=31	=31
(16.gg#X\LL	.	.
32ff##X\JJk	.	.
16.gg#\LL)	.	.
(32ee\K	.	.
16ff#X\	.	.
16gg#\JJ)	.	.
=32	=32	=32
8aa\	.	.
!LO:TX:b:i:t=D.C.al Fine.	!	!
4aa^\	.	.
!LO:LB:g=original	!	!
=33||	=33||	=33||
*k[gncnf#]	*	*
*M3/8	*	*
!LO:TX:t=P:problem: kasownik ggn cn	!	!
!LO:TX:a:B:t=Trio.	!	!
(8qcc#X/	.	.
4.dd^<u\)	.	.
=34	=34	=34
(8qcc#X/	.	.
4.dd^<\)	.	.
=35	=35	=35
(8qcc#X/	.	.
4.dd^<\)	.	.
=36	=36	=36
(8qcc#X/	.	.
4dd^<\)	.	.
8dd\	.	.
!LO:TX:a:t=[segno]	!	!
=37||	=37||	=37||
(24d/LL	.	.
24e/	.	.
24f#/JJ	.	.
16g/)	.	.
16r	.	.
8b^^\	.	.
=38	=38	=38
(24f#/LL	.	.
24a/	.	.
24cc/JJ	.	.
16ee\)	4	.
16r	.	.
8dd\	.	.
=39	=39	=39
(16a\LL	.	.
16cc\J	.	.
8ee\J)	4	.
(16dd\LL	.	.
16f#\JJ)	.	.
=40	=40	=40
(16g/LL	.	.
16b/JJ)	.	.
8ee\L	4	.
8dd\J	.	.
!LO:LB:g=original	!	!
=41	=41	=41
(24d/LL	.	.
24e/	.	.
24f#/JJ	.	.
16g/)	.	.
16r	.	.
8b\	.	.
=42	=42	=42
(16.a\LL	.	.
32dd\JJk)	.	.
4a^>/	.	.
=43	=43	=43
(16.a/LL	.	.
32b/JJk)	.	.
(16a/LL	.	.
16e/	.	.
16g/	.	.
16f#/JJ)	.	.
=44	=44	=44
8d/	.	.
4dd^\	.	.
=45	=45	=45
(24d/LL	.	.
24e/	.	.
24f#/JJ	.	.
16g/)	.	.
16r	.	.
8b^^\	.	.
=46	=46	=46
!LO:TUP:b	!	!
(24f#/LL	.	.
24a/	.	.
24cc/JJ	.	.
16ee\)	.	.
16r	.	.
8dd\	.	.
!LO:LB:g=original	!	!
=47	=47	=47
(16a\LL	.	.
16cc\J	.	.
8ee\J)	4	.
(16dd/LL	.	.
16f#/JJ)	.	.
=48	=48	=48
(16g/LL	.	.
16b/JJ)	.	.
8ee\L	4	.
8dd\J	.	.
=49	=49	=49
16.e/LL	.	.
32f#/JJk	.	.
16g/	.	.
16r	.	.
(8A#X^^/	.	.
=50	=50	=50
16.B/LL	.	.
32cn/JJk	.	.
16d/)	.	.
16r	.	.
8g^^/	.	.
=51	=51	=51
(16.f#\LL	.	.
32ee\JJk)	4	.
(16dd\LL	.	.
16a\	.	.
16cc\	.	.
16b\JJ)	.	.
=52	=52	=52
8g/	.	.
!LO:TX:b:i:t=Fine.	!	!
4g/	.	.
!LO:LB:g=original	!	!
=53||	=53||	=53||
*k[f#c#]	*	*
(16.aau\LL	.	.
32bb\JK	.	.
8ee\)	.	.
(8gg\J	.	.
=54	=54	=54
16ff#\LL	.	.
16bb\JJ	.	.
4aa\)	.	.
=55	=55	=55
(16.aa\LL	.	.
32bb\JK	.	.
8ee\)	.	.
(8gg\J	.	.
=56	=56	=56
16ff#\LL	.	.
16bb\JJ	.	.
4aa\)	.	.
=57	=57	=57
(16aa#X\LL	1	.
16ccc#\J	.	.
8ff#\)	.	.
(8aa#\J	.	.
=58	=58	=58
16bb\LL	.	.
16ccc#\J	.	.
8ddd\J)	.	.
(16ccc#\LL	.	.
16bb\JJ)	.	.
=59	=59	=59
(16.aa#X\LL	.	.
32ccc#\JJk	.	.
8ff#\)	.	.
(16ff#\LL	.	.
16aa#\JJ	.	.
=60	=60	=60
8bb\)	.	.
4bb^\	.	.
!LO:LB:g=original	!	!
=61	=61	=61
(16.aa\LL	3	.
32bb\JK	.	.
8ee\)	.	.
(8gg\J	.	.
=62	=62	=62
16ff#\LL	.	.
16bb\JJ	.	.
4aa\)	.	.
=63	=63	=63
(16.aa\LL	.	.
32bb\JK	.	.
8ee\)	.	.
(8gg\J	.	.
=64	=64	=64
16qqaa/LL	.	.
16qqgg/JJ	.	.
4.ff#\)	.	.
=65	=65	=65
(16bb\LL	2	.
16ccc#\J	.	.
8ddd\J)	.	.
(16ccc#\LL	.	.
16bb\JJ)	.	.
=66	=66	=66
(16aa\LL	.	.
16ddd\J	.	.
8aa\J)	.	.
(16gg\LL	2	.
16ff#\JJ)	.	.
=67	=67	=67
(16ee\LL	.	.
16ff#\J	.	.
8gg\J)	.	.
(16qqaa/LL	.	.
16qqgg/JJ	.	.
(16ff#\LL)	.	.
16ee\JJ)	.	.
=68	=68	=68
8dd\	.	.
!LO:TX:b:i:t=Trio Dal Segno.	!	!
4ccn^\	.	.
!LO:TX:a:t=[segno]	!	!
==	==	==
*-	*-	*-
!!!RDF**kern: > = above
!!!RDF**kern: < = below
!!!ENC: Filip Voros
!!!END: 2022-07-31
!!!ENC: Jan Barakat
!!!END: 2022-08-27!!!YEC: Copyright 2022 Narodowy Instytut Fryderyka Chopina (https://polishscores.org)
!!!YEM: License CC-BY-4.0 (https://creativecommons.org/licenses/by/4.0)
